flaticon/medical/teeth-5.svg

<svg xmlns="http://www.w3.org/2000/svg" width="32" height="32" viewBox="0 0 24 24">
    <path d="M 19.976562 3.199219 L 4.023438 3.199219 C 1.804688 3.199219 0 5.003906 0 7.222656 L 0 11.121094 C 0 11.683594 0.367188 12.15625 0.871094 12.328125 C 0.640625 13.585938 0.472656 14.828125 0.40625 15.902344 C 0.277344 18.050781 1.730469 19.539062 3.230469 20.058594 C 4.65625 20.554688 5.9375 20.800781 7.074219 20.800781 C 8.300781 20.800781 9.359375 20.511719 10.230469 19.929688 C 10.964844 19.441406 11.609375 18.496094 12 17.574219 C 12.390625 18.496094 13.035156 19.441406 13.769531 19.929688 C 14.640625 20.511719 15.695312 20.800781 16.925781 20.800781 C 18.0625 20.800781 19.34375 20.554688 20.769531 20.058594 C 22.269531 19.539062 23.722656 18.050781 23.59375 15.902344 C 23.527344 14.828125 23.359375 13.585938 23.128906 12.328125 C 23.632812 12.15625 24 11.683594 24 11.121094 L 24 7.222656 C 24 5.003906 22.195312 3.199219 19.976562 3.199219 Z M 9.789062 19.265625 C 8.328125 20.234375 6.210938 20.246094 3.492188 19.304688 C 2.277344 18.882812 1.101562 17.679688 1.207031 15.949219 C 1.277344 14.800781 1.472656 13.410156 1.75 12.023438 C 1.789062 11.820312 1.832031 11.617188 1.875 11.414062 C 1.886719 11.351562 1.902344 11.289062 1.914062 11.226562 C 1.957031 11.039062 2 10.855469 2.042969 10.671875 C 2.066406 10.570312 2.089844 10.46875 2.117188 10.367188 C 2.152344 10.222656 2.1875 10.078125 2.222656 9.941406 C 2.289062 9.691406 2.355469 9.445312 2.421875 9.210938 C 2.832031 7.800781 4.019531 7.199219 6.402344 7.199219 C 9.484375 7.199219 10.089844 7.273438 10.851562 9.683594 C 10.921875 9.90625 10.984375 10.132812 11.039062 10.363281 C 11.058594 10.441406 11.078125 10.523438 11.097656 10.605469 C 11.128906 10.746094 11.160156 10.890625 11.1875 11.035156 C 11.210938 11.152344 11.234375 11.265625 11.253906 11.386719 C 11.257812 11.398438 11.257812 11.410156 11.261719 11.421875 C 11.296875 11.625 11.328125 11.835938 11.355469 12.054688 L 11.382812 12.25 C 11.550781 13.574219 11.589844 14.894531 11.597656 15.929688 C 11.609375 16.761719 10.832031 18.570312 9.789062 19.265625 Z M 20.507812 19.304688 C 17.789062 20.246094 15.671875 20.234375 14.210938 19.261719 C 13.167969 18.570312 12.394531 16.761719 12.402344 15.925781 C 12.410156 14.894531 12.449219 13.574219 12.617188 12.246094 L 12.644531 12.050781 C 12.671875 11.835938 12.703125 11.625 12.738281 11.421875 C 12.742188 11.410156 12.742188 11.398438 12.742188 11.386719 C 12.765625 11.265625 12.789062 11.152344 12.8125 11.035156 C 12.839844 10.890625 12.871094 10.746094 12.902344 10.605469 C 12.921875 10.523438 12.9375 10.441406 12.957031 10.363281 C 13.015625 10.132812 13.078125 9.90625 13.144531 9.683594 C 13.910156 7.273438 14.515625 7.199219 17.597656 7.199219 C 19.980469 7.199219 21.167969 7.800781 21.578125 9.210938 C 21.644531 9.445312 21.710938 9.691406 21.777344 9.9375 C 21.8125 10.078125 21.847656 10.222656 21.882812 10.367188 C 21.910156 10.46875 21.933594 10.570312 21.957031 10.671875 C 22 10.851562 22.042969 11.035156 22.082031 11.222656 C 22.097656 11.289062 22.113281 11.351562 22.125 11.417969 C 22.167969 11.617188 22.210938 11.820312 22.25 12.023438 C 22.523438 13.410156 22.722656 14.800781 22.792969 15.949219 C 22.898438 17.679688 21.722656 18.882812 20.507812 19.304688 Z M 23.199219 11.121094 C 23.199219 11.292969 23.109375 11.445312 22.972656 11.527344 C 22.886719 11.117188 22.789062 10.707031 22.691406 10.304688 C 22.675781 10.242188 22.664062 10.179688 22.648438 10.121094 C 22.613281 9.976562 22.574219 9.832031 22.539062 9.6875 C 22.476562 9.449219 22.410156 9.214844 22.347656 8.988281 C 21.683594 6.695312 19.460938 6.398438 17.597656 6.398438 C 14.371094 6.398438 13.304688 6.539062 12.382812 9.441406 C 12.3125 9.667969 12.246094 9.90625 12.1875 10.148438 C 12.175781 10.199219 12.164062 10.25 12.152344 10.300781 C 12.101562 10.511719 12.054688 10.730469 12.011719 10.960938 C 12.007812 10.972656 12.003906 10.988281 12 11.003906 C 11.996094 10.988281 11.992188 10.976562 11.992188 10.960938 C 11.945312 10.730469 11.898438 10.511719 11.847656 10.296875 C 11.835938 10.25 11.828125 10.199219 11.816406 10.152344 C 11.753906 9.90625 11.6875 9.667969 11.617188 9.441406 C 10.695312 6.539062 9.628906 6.398438 6.402344 6.398438 C 4.542969 6.398438 2.316406 6.695312 1.65625 8.988281 C 1.589844 9.214844 1.527344 9.449219 1.464844 9.691406 C 1.425781 9.832031 1.390625 9.976562 1.355469 10.121094 C 1.339844 10.179688 1.324219 10.242188 1.308594 10.304688 C 1.210938 10.707031 1.117188 11.117188 1.03125 11.53125 C 0.890625 11.445312 0.800781 11.292969 0.800781 11.121094 L 0.800781 7.222656 C 0.800781 5.445312 2.246094 4 4.023438 4 L 19.976562 4 C 21.753906 4 23.199219 5.445312 23.199219 7.222656 Z M 23.199219 11.121094"/>
</svg>

<svg xmlns="http://www.w3.org/2000/svg" width="32" height="32" viewBox="0 0 24 24">
    <path d="M19.977 3.2H4.023A4.028 4.028 0 0 0 0 7.222v3.898c0 .563.367 1.035.871 1.207-.23 1.258-.398 2.5-.465 3.574C.277 18.051 1.73 19.54 3.23 20.06c1.426.496 2.708.742 3.844.742 1.227 0 2.285-.29 3.156-.871.735-.489 1.38-1.434 1.77-2.356.39.922 1.035 1.867 1.77 2.356.87.582 1.925.87 3.156.87 1.137 0 2.418-.245 3.844-.741 1.5-.52 2.953-2.008 2.824-4.157-.067-1.074-.235-2.316-.465-3.574.504-.172.871-.644.871-1.207V7.223a4.028 4.028 0 0 0-4.023-4.024zM9.789 19.265c-1.46.968-3.578.98-6.297.039-1.215-.422-2.39-1.625-2.285-3.356.07-1.148.266-2.539.543-3.926.04-.203.082-.406.125-.609.012-.062.027-.125.04-.187.042-.188.085-.372.128-.555a34.137 34.137 0 0 1 .18-.73c.066-.25.132-.497.199-.731.41-1.41 1.598-2.012 3.98-2.012 3.082 0 3.688.074 4.45 2.485.07.222.132.449.187.68a13.896 13.896 0 0 1 .148.672c.024.116.047.23.067.35.004.012.004.024.008.036.035.203.066.414.093.633l.028.195c.168 1.324.207 2.645.215 3.68.011.832-.766 2.64-1.809 3.336zm10.719.039c-2.719.941-4.836.93-6.297-.043-1.043-.692-1.816-2.5-1.809-3.336.008-1.031.047-2.352.215-3.68l.028-.195c.027-.215.058-.426.093-.63.004-.01.004-.023.004-.034l.07-.352c.028-.144.06-.289.09-.43.02-.082.036-.164.055-.242.059-.23.121-.457.188-.68.765-2.41 1.37-2.484 4.453-2.484 2.382 0 3.57.602 3.98 2.012.067.234.133.48.2.726a70.06 70.06 0 0 1 .304 1.286 27.6 27.6 0 0 1 .168.8c.273 1.387.473 2.778.543 3.926.105 1.73-1.07 2.934-2.285 3.356zm2.691-8.184c0 .172-.09.324-.226.406-.086-.41-.184-.82-.282-1.222-.015-.063-.027-.125-.043-.184-.035-.144-.074-.289-.109-.434-.062-.238-.129-.472-.191-.699-.664-2.293-2.887-2.59-4.75-2.59-3.227 0-4.293.141-5.215 3.043-.07.227-.137.465-.195.707l-.036.153c-.05.21-.097.43-.14.66l-.012.043c-.004-.016-.008-.027-.008-.043a21.56 21.56 0 0 0-.144-.664c-.012-.047-.02-.098-.032-.145a14.203 14.203 0 0 0-.199-.71c-.922-2.903-1.988-3.044-5.215-3.044-1.859 0-4.086.297-4.746 2.59-.066.227-.129.461-.191.703-.04.141-.074.286-.11.43l-.046.184c-.098.402-.192.812-.278 1.226a.479.479 0 0 1-.23-.41V7.223A3.226 3.226 0 0 1 4.023 4h15.954a3.226 3.226 0 0 1 3.222 3.223zm0 0"/>
</svg>
